svg/part/dress_fill.svg

<?xml version="1.0" encoding="UTF-8"?>
<svg width="24px" height="24px" viewBox="0 0 24 24" version="1.1" xmlns="http://www.w3.org/2000/svg" xmlns:xlink="http://www.w3.org/1999/xlink">
    <title>dress_fill</title>
    <g id="Icon" stroke="none" stroke-width="1" fill="none" fill-rule="evenodd">
        <g id="Part" transform="translate(-384.000000, -240.000000)">
            <g id="dress_fill" transform="translate(384.000000, 240.000000)">
                <path d="M24,0 L24,24 L0,24 L0,0 L24,0 Z M12.5935,23.2578 L12.5819,23.2595 L12.5109,23.295 L12.4919,23.2987 L12.4767,23.295 L12.4057,23.2595 C12.3958,23.2564 12.387,23.259 12.3821,23.2649 L12.378,23.2758 L12.3609,23.7031 L12.3659,23.7235 L12.3769,23.7357 L12.4805,23.8097 L12.4953,23.8136 L12.5071,23.8097 L12.6107,23.7357 L12.6233,23.7197 L12.6267,23.7031 L12.6096,23.2758 C12.6076,23.2657 12.601,23.2593 12.5935,23.2578 Z M12.8584,23.1453 L12.8445,23.1473 L12.6598,23.2397 L12.6499,23.2499 L12.6472,23.2611 L12.6651,23.6906 L12.6699,23.7034 L12.6784,23.7105 L12.8793,23.8032 C12.8914,23.8069 12.9022,23.803 12.9078,23.7952 L12.9118,23.7812 L12.8777,23.1665 C12.8753,23.1546 12.8674,23.147 12.8584,23.1453 Z M12.143,23.1473 C12.1332,23.1424 12.1222,23.1453 12.1156,23.1526 L12.1099,23.1665 L12.0758,23.7812 C12.0751,23.7927 12.0828,23.8019 12.0926,23.8046 L12.1083,23.8032 L12.3092,23.7105 L12.3186,23.7024 L12.3225,23.6906 L12.3404,23.2611 L12.3372,23.2485 L12.3278,23.2397 L12.143,23.1473 Z" id="MingCute" fill-rule="nonzero"></path>
                <path d="M4,7 C4,4.23858 6.23858,2 9,2 C9.48249,2 9.93798,2.17004 10.1135,2.66675 C10.3886,3.4449 11.1307,4 12,4 C12.8693,4 13.6114,3.4449 13.8865,2.66675 C14.062,2.17004 14.5175,2 15,2 C17.7614,2 20,4.23858 20,7 L20,7.5 C20,8.32843 19.3284,9 18.5,9 L16,9 C16,9.77064 15.9241,10.5544 16.4383,11.197 L18.4661,13.7318 C19.459,14.973 20,16.5152 20,18.1047 L20,19 C20,20.6569 18.6569,22 17,22 L7,22 C5.34315,22 4,20.6569 4,19 L4,18.1047 C4,16.5152 4.54097,14.973 5.53392,13.7318 L7.56174,11.197 C8.07588,10.5544 8,9.77064 8,9 L5.5,9 C4.67157,9 4,8.32843 4,7.5 L4,7 Z" id="路径" fill="#09244B"></path>
            </g>
        </g>
    </g>
</svg>

<svg xmlns="http://www.w3.org/2000/svg" width="24" height="24"><g fill="none" fill-rule="evenodd"><path d="M24 0v24H0V0h24ZM12.594 23.258l-.012.002-.071.035-.02.004-.014-.004-.071-.036c-.01-.003-.019 0-.024.006l-.004.01-.017.428.005.02.01.013.104.074.015.004.012-.004.104-.074.012-.016.004-.017-.017-.427c-.002-.01-.009-.017-.016-.018Zm.264-.113-.014.002-.184.093-.01.01-.003.011.018.43.005.012.008.008.201.092c.012.004.023 0 .029-.008l.004-.014-.034-.614c-.003-.012-.01-.02-.02-.022Zm-.715.002a.023.023 0 0 0-.027.006l-.006.014-.034.614c0 .012.007.02.017.024l.015-.002.201-.093.01-.008.003-.011.018-.43-.003-.012-.01-.01-.184-.092Z"/><path fill="#09244B" d="M4 7a5 5 0 0 1 5-5c.482 0 .938.17 1.114.667a2.001 2.001 0 0 0 3.772 0C14.063 2.17 14.519 2 15 2a5 5 0 0 1 5 5v.5A1.5 1.5 0 0 1 18.5 9H16c0 .77-.076 1.554.438 2.197l2.028 2.535A7 7 0 0 1 20 18.105V19a3 3 0 0 1-3 3H7a3 3 0 0 1-3-3v-.895a7 7 0 0 1 1.534-4.373l2.028-2.535C8.076 10.554 8 9.771 8 9H5.5A1.5 1.5 0 0 1 4 7.5V7Z"/></g></svg>
